icons/1_Primary/Disroot.svg

<svg xmlns="http://www.w3.org/2000/svg" viewBox="0 0 1024 1024">
   <circle cx="512" cy="512" r="512" style="fill:#50142b"/>
   <path d="M345.65 307.67h7c51.14 1.2 101.68 10.51 151.34 22.21C541.27 341.39 579 352.45 613.93 370c30.06 15.3 57.77 34.64 86.31 52.47 7.83 4.63 14.22 11.16 21.07 17 13.63 12.35 26.48 25.73 36.86 41 6.85 9.87 8.63 22.15 9.82 33.85v8.45c-.64 22.79-10.72 44.26-24.67 61.92-17.25 21.89-39.86 38.89-63.57 53.21-36 21.51-75.28 37-115.11 49.89-29.64 9.62-59.83 17.47-90.25 24.21-17 4.07-34.5 5.82-51.8 8.31h-4.42c-6.15-.09-12.84-1.32-17.22-6-5.18-5.44-6.91-13.09-8.27-20.25-1.17-6.3 3.46-11.59 7.51-15.77 11.25-11 25.18-19.73 33.24-33.66 6.26-10.37 6.68-23.6 2-34.67Q396.68 514 357.94 418c-4.25-9.62-14.83-14.27-24.57-16.18-16.37-2.89-33.09-2.09-49.64-2.27-13.06-.12-25.87 5.13-38.92 3.18-7.41-1.49-9.64-9.79-9.71-16.35v-3.53c.43-10.41 6.36-19.58 13-27.19 11.57-13.12 26.28-23.07 41.67-31.17 17.41-8.92 36.29-15.44 55.88-16.82zm163.54 141.05c11.6 37.07 25.18 73.49 37.39 110.37 4.8 12.53 11.1 24.53 14.56 37.55 3.06 11.07 2.41 23.17-2.79 33.51 21.44-4.6 43.42-7.63 63.83-16.08 11.24-4.57 21.51-12.12 28.12-22.4 5-10 8.12-21.51 6.55-32.78-1.43-10.63-7.43-20.2-15.33-27.27C620.4 512.48 599 493.33 575 477.81c-20.16-13.14-42.36-23.38-65.81-29.09z" style="fill:#fff"/>
</svg>

<svg width="1024" height="1024" viewBox="0 0 1024 1024" fill="none" xmlns="http://www.w3.org/2000/svg">
<g clip-path="url(#clip0_2_2028)">
<path d="M512 1024C794.77 1024 1024 794.77 1024 512C1024 229.23 794.77 0 512 0C229.23 0 0 229.23 0 512C0 794.77 229.23 1024 512 1024Z" fill="#BA6561"/>
<path d="M345.65 307.67H352.65C403.79 308.87 454.33 318.18 503.99 329.88C541.27 341.39 579 352.45 613.93 370C643.99 385.3 671.7 404.64 700.24 422.47C708.07 427.1 714.46 433.63 721.31 439.47C734.94 451.82 747.79 465.2 758.17 480.47C765.02 490.34 766.8 502.62 767.99 514.32V522.77C767.35 545.56 757.27 567.03 743.32 584.69C726.07 606.58 703.46 623.58 679.75 637.9C643.75 659.41 604.47 674.9 564.64 687.79C535 697.41 504.81 705.26 474.39 712C457.39 716.07 439.89 717.82 422.59 720.31H418.17C412.02 720.22 405.33 718.99 400.95 714.31C395.77 708.87 394.04 701.22 392.68 694.06C391.51 687.76 396.14 682.47 400.19 678.29C411.44 667.29 425.37 658.56 433.43 644.63C439.69 634.26 440.11 621.03 435.43 609.96C409.596 545.987 383.766 482 357.94 418C353.69 408.38 343.11 403.73 333.37 401.82C317 398.93 300.28 399.73 283.73 399.55C270.67 399.43 257.86 404.68 244.81 402.73C237.4 401.24 235.17 392.94 235.1 386.38V382.85C235.53 372.44 241.46 363.27 248.1 355.66C259.67 342.54 274.38 332.59 289.77 324.49C307.18 315.57 326.06 309.05 345.65 307.67ZM509.19 448.72C520.79 485.79 534.37 522.21 546.58 559.09C551.38 571.62 557.68 583.62 561.14 596.64C564.2 607.71 563.55 619.81 558.35 630.15C579.79 625.55 601.77 622.52 622.18 614.07C633.42 609.5 643.69 601.95 650.3 591.67C655.3 581.67 658.42 570.16 656.85 558.89C655.42 548.26 649.42 538.69 641.52 531.62C620.4 512.48 599 493.33 575 477.81C554.84 464.67 532.64 454.43 509.19 448.72Z" fill="white"/>
</g>
<defs>
<clipPath id="clip0_2_2028">
<rect width="1024" height="1024" fill="white"/>
</clipPath>
</defs>
</svg>
